X: 2
T: Barony Jig, The
M: 9/8
L: 1/8
R: hop/slip jig
K: DMaj
|: FAA FAA FDD | FAA FAA B2 A | 
FAA FAA FDD | BAF EFA B2 A :|
|: FAA dBd AFD | FAA dBd A2 G | 
FAA dBd AFD | BAF EFA B2 A :|
